threshold.cube
#Created by: Adobe Photoshop Export Color Lookup Plugin
TITLE "Untitled"
#LUT size
LUT_3D_SIZE 8
#data domain
#LUT data points
DOMAIN_MIN 0.000000 0.000000 0.000000
DOMAIN_MAX 0.903226 0.903226 0.903226
0.000000 0.000000 0.000000
0.000488 0.000000 0.000000
0.008606 0.000000 0.000000
0.046631 0.000000 0.000000
0.154694 0.000000 0.000000
0.391876 0.000000 0.000000
0.837341 0.000000 0.000000
1.000000 0.000000 0.000000
0.000000 0.000488 0.000000
0.000488 0.000488 0.000000
0.008606 0.000488 0.000000
0.046631 0.000488 0.000000
0.154694 0.000488 0.000000
0.391876 0.000488 0.000000
0.837341 0.000488 0.000000
1.000000 0.000488 0.000000
0.000000 0.008606 0.000000
0.000488 0.008606 0.000000
0.008606 0.008606 0.000000
0.046631 0.008606 0.000000
0.154694 0.008606 0.000000
0.391876 0.008606 0.000000
0.837341 0.008606 0.000000
1.000000 0.008606 0.000000
0.000000 0.046631 0.000000
0.000488 0.046631 0.000000
0.008606 0.046631 0.000000
0.046631 0.046631 0.000000
0.154694 0.046631 0.000000
0.391876 0.046631 0.000000
0.837341 0.046631 0.000000
1.000000 0.046631 0.000000
0.000000 0.154694 0.000000
0.000488 0.154694 0.000000
0.008606 0.154694 0.000000
0.046631 0.154694 0.000000
0.154694 0.154694 0.000000
0.391876 0.154694 0.000000
0.837341 0.154694 0.000000
1.000000 0.154694 0.000000
0.000000 0.391876 0.000000
0.000488 0.391876 0.000000
0.008606 0.391876 0.000000
0.046631 0.391876 0.000000
0.154694 0.391876 0.000000
0.391876 0.391876 0.000000
0.837341 0.391876 0.000000
1.000000 0.391876 0.000000
0.000000 0.837341 0.000000
0.000488 0.837341 0.000000
0.008606 0.837341 0.000000
0.046631 0.837341 0.000000
0.154694 0.837341 0.000000
0.391876 0.837341 0.000000
0.837341 0.837341 0.000000
1.000000 0.837341 0.000000
0.000000 1.000000 0.000000
0.000488 1.000000 0.000000
0.008606 1.000000 0.000000
0.046631 1.000000 0.000000
0.154694 1.000000 0.000000
0.391876 1.000000 0.000000
0.837341 1.000000 0.000000
1.000000 1.000000 0.000000
0.000000 0.000000 0.000488
0.000488 0.000000 0.000488
0.008606 0.000000 0.000488
0.046631 0.000000 0.000488
0.154694 0.000000 0.000488
0.391876 0.000000 0.000488
0.837341 0.000000 0.000488
1.000000 0.000000 0.000488
0.000000 0.000488 0.000488
0.000488 0.000488 0.000488
0.008606 0.000488 0.000488
0.046631 0.000488 0.000488
0.154694 0.000488 0.000488
0.391876 0.000488 0.000488
0.837341 0.000488 0.000488
1.000000 0.000488 0.000488
0.000000 0.008606 0.000488
0.000488 0.008606 0.000488
0.008606 0.008606 0.000488
0.046631 0.008606 0.000488
0.154694 0.008606 0.000488
0.391876 0.008606 0.000488
0.837341 0.008606 0.000488
1.000000 0.008606 0.000488
0.000000 0.046631 0.000488
0.000488 0.046631 0.000488
0.008606 0.046631 0.000488
0.046631 0.046631 0.000488
0.154694 0.046631 0.000488
0.391876 0.046631 0.000488
0.837341 0.046631 0.000488
1.000000 0.046631 0.000488
0.000000 0.154694 0.000488
0.000488 0.154694 0.000488
0.008606 0.154694 0.000488
0.046631 0.154694 0.000488
0.154694 0.154694 0.000488
0.391876 0.154694 0.000488
0.837341 0.154694 0.000488
1.000000 0.154694 0.000488
0.000000 0.391876 0.000488
0.000488 0.391876 0.000488
0.008606 0.391876 0.000488
0.046631 0.391876 0.000488
0.154694 0.391876 0.000488
0.391876 0.391876 0.000488
0.837341 0.391876 0.000488
1.000000 0.391876 0.000488
0.000000 0.837341 0.000488
0.000488 0.837341 0.000488
0.008606 0.837341 0.000488
0.046631 0.837341 0.000488
0.154694 0.837341 0.000488
0.391876 0.837341 0.000488
0.837341 0.837341 0.000488
1.000000 0.837341 0.000488
0.000000 1.000000 0.000488
0.000488 1.000000 0.000488
0.008606 1.000000 0.000488
0.046631 1.000000 0.000488
0.154694 1.000000 0.000488
0.391876 1.000000 0.000488
0.837341 1.000000 0.000488
1.000000 1.000000 0.000488
0.000000 0.000000 0.008606
0.000488 0.000000 0.008606
0.008606 0.000000 0.008606
0.046631 0.000000 0.008606
0.154694 0.000000 0.008606
0.391876 0.000000 0.008606
0.837341 0.000000 0.008606
1.000000 0.000000 0.008606
0.000000 0.000488 0.008606
0.000488 0.000488 0.008606
0.008606 0.000488 0.008606
0.046631 0.000488 0.008606
0.154694 0.000488 0.008606
0.391876 0.000488 0.008606
0.837341 0.000488 0.008606
1.000000 0.000488 0.008606
0.000000 0.008606 0.008606
0.000488 0.008606 0.008606
0.008606 0.008606 0.008606
0.046631 0.008606 0.008606
0.154694 0.008606 0.008606
0.391876 0.008606 0.008606
0.837341 0.008606 0.008606
1.000000 0.008606 0.008606
0.000000 0.046631 0.008606
0.000488 0.046631 0.008606
0.008606 0.046631 0.008606
0.046631 0.046631 0.008606
0.154694 0.046631 0.008606
0.391876 0.046631 0.008606
0.837341 0.046631 0.008606
1.000000 0.046631 0.008606
0.000000 0.154694 0.008606
0.000488 0.154694 0.008606
0.008606 0.154694 0.008606
0.046631 0.154694 0.008606
0.154694 0.154694 0.008606
0.391876 0.154694 0.008606
0.837341 0.154694 0.008606
1.000000 0.154694 0.008606
0.000000 0.391876 0.008606
0.000488 0.391876 0.008606
0.008606 0.391876 0.008606
0.046631 0.391876 0.008606
0.154694 0.391876 0.008606
0.391876 0.391876 0.008606
0.837341 0.391876 0.008606
1.000000 0.391876 0.008606
0.000000 0.837341 0.008606
0.000488 0.837341 0.008606
0.008606 0.837341 0.008606
0.046631 0.837341 0.008606
0.154694 0.837341 0.008606
0.391876 0.837341 0.008606
0.837341 0.837341 0.008606
1.000000 0.837341 0.008606
0.000000 1.000000 0.008606
0.000488 1.000000 0.008606
0.008606 1.000000 0.008606
0.046631 1.000000 0.008606
0.154694 1.000000 0.008606
0.391876 1.000000 0.008606
0.837341 1.000000 0.008606
1.000000 1.000000 0.008606
0.000000 0.000000 0.046631
0.000488 0.000000 0.046631
0.008606 0.000000 0.046631
0.046631 0.000000 0.046631
0.154694 0.000000 0.046631
0.391876 0.000000 0.046631
0.837341 0.000000 0.046631
1.000000 0.000000 0.046631
0.000000 0.000488 0.046631
0.000488 0.000488 0.046631
0.008606 0.000488 0.046631
0.046631 0.000488 0.046631
0.154694 0.000488 0.046631
0.391876 0.000488 0.046631
0.837341 0.000488 0.046631
1.000000 0.000488 0.046631
0.000000 0.008606 0.046631
0.000488 0.008606 0.046631
0.008606 0.008606 0.046631
0.046631 0.008606 0.046631
0.154694 0.008606 0.046631
0.391876 0.008606 0.046631
0.837341 0.008606 0.046631
1.000000 0.008606 0.046631
0.000000 0.046631 0.046631
0.000488 0.046631 0.046631
0.008606 0.046631 0.046631
0.046631 0.046631 0.046631
0.154694 0.046631 0.046631
0.391876 0.046631 0.046631
0.837341 0.046631 0.046631
1.000000 0.046631 0.046631
0.000000 0.154694 0.046631
0.000488 0.154694 0.046631
0.008606 0.154694 0.046631
0.046631 0.154694 0.046631
0.154694 0.154694 0.046631
0.391876 0.154694 0.046631
0.837341 0.154694 0.046631
1.000000 0.154694 0.046631
0.000000 0.391876 0.046631
0.000488 0.391876 0.046631
0.008606 0.391876 0.046631
0.046631 0.391876 0.046631
0.154694 0.391876 0.046631
0.391876 0.391876 0.046631
0.837341 0.391876 0.046631
1.000000 0.391876 0.046631
0.000000 0.837341 0.046631
0.000488 0.837341 0.046631
0.008606 0.837341 0.046631
0.046631 0.837341 0.046631
0.154694 0.837341 0.046631
0.391876 0.837341 0.046631
0.837341 0.837341 0.046631
1.000000 0.837341 0.046631
0.000000 1.000000 0.046631
0.000488 1.000000 0.046631
0.008606 1.000000 0.046631
0.046631 1.000000 0.046631
0.154694 1.000000 0.046631
0.391876 1.000000 0.046631
0.837341 1.000000 0.046631
1.000000 1.000000 0.046631
0.000000 0.000000 0.154694
0.000488 0.000000 0.154694
0.008606 0.000000 0.154694
0.046631 0.000000 0.154694
0.154694 0.000000 0.154694
0.391876 0.000000 0.154694
0.837341 0.000000 0.154694
1.000000 0.000000 0.154694
0.000000 0.000488 0.154694
0.000488 0.000488 0.154694
0.008606 0.000488 0.154694
0.046631 0.000488 0.154694
0.154694 0.000488 0.154694
0.391876 0.000488 0.154694
0.837341 0.000488 0.154694
1.000000 0.000488 0.154694
0.000000 0.008606 0.154694
0.000488 0.008606 0.154694
0.008606 0.008606 0.154694
0.046631 0.008606 0.154694
0.154694 0.008606 0.154694
0.391876 0.008606 0.154694
0.837341 0.008606 0.154694
1.000000 0.008606 0.154694
0.000000 0.046631 0.154694
0.000488 0.046631 0.154694
0.008606 0.046631 0.154694
0.046631 0.046631 0.154694
0.154694 0.046631 0.154694
0.391876 0.046631 0.154694
0.837341 0.046631 0.154694
1.000000 0.046631 0.154694
0.000000 0.154694 0.154694
0.000488 0.154694 0.154694
0.008606 0.154694 0.154694
0.046631 0.154694 0.154694
0.154694 0.154694 0.154694
0.391876 0.154694 0.154694
0.837341 0.154694 0.154694
1.000000 0.154694 0.154694
0.000000 0.391876 0.154694
0.000488 0.391876 0.154694
0.008606 0.391876 0.154694
0.046631 0.391876 0.154694
0.154694 0.391876 0.154694
0.391876 0.391876 0.154694
0.837341 0.391876 0.154694
1.000000 0.391876 0.154694
0.000000 0.837341 0.154694
0.000488 0.837341 0.154694
0.008606 0.837341 0.154694
0.046631 0.837341 0.154694
0.154694 0.837341 0.154694
0.391876 0.837341 0.154694
0.837341 0.837341 0.154694
1.000000 0.837341 0.154694
0.000000 1.000000 0.154694
0.000488 1.000000 0.154694
0.008606 1.000000 0.154694
0.046631 1.000000 0.154694
0.154694 1.000000 0.154694
0.391876 1.000000 0.154694
0.837341 1.000000 0.154694
1.000000 1.000000 0.154694
0.000000 0.000000 0.391876
0.000488 0.000000 0.391876
0.008606 0.000000 0.391876
0.046631 0.000000 0.391876
0.154694 0.000000 0.391876
0.391876 0.000000 0.391876
0.837341 0.000000 0.391876
1.000000 0.000000 0.391876
0.000000 0.000488 0.391876
0.000488 0.000488 0.391876
0.008606 0.000488 0.391876
0.046631 0.000488 0.391876
0.154694 0.000488 0.391876
0.391876 0.000488 0.391876
0.837341 0.000488 0.391876
1.000000 0.000488 0.391876
0.000000 0.008606 0.391876
0.000488 0.008606 0.391876
0.008606 0.008606 0.391876
0.046631 0.008606 0.391876
0.154694 0.008606 0.391876
0.391876 0.008606 0.391876
0.837341 0.008606 0.391876
1.000000 0.008606 0.391876
0.000000 0.046631 0.391876
0.000488 0.046631 0.391876
0.008606 0.046631 0.391876
0.046631 0.046631 0.391876
0.154694 0.046631 0.391876
0.391876 0.046631 0.391876
0.837341 0.046631 0.391876
1.000000 0.046631 0.391876
0.000000 0.154694 0.391876
0.000488 0.154694 0.391876
0.008606 0.154694 0.391876
0.046631 0.154694 0.391876
0.154694 0.154694 0.391876
0.391876 0.154694 0.391876
0.837341 0.154694 0.391876
1.000000 0.154694 0.391876
0.000000 0.391876 0.391876
0.000488 0.391876 0.391876
0.008606 0.391876 0.391876
0.046631 0.391876 0.391876
0.154694 0.391876 0.391876
0.391876 0.391876 0.391876
0.837341 0.391876 0.391876
1.000000 0.391876 0.391876
0.000000 0.837341 0.391876
0.000488 0.837341 0.391876
0.008606 0.837341 0.391876
0.046631 0.837341 0.391876
0.154694 0.837341 0.391876
0.391876 0.837341 0.391876
0.837341 0.837341 0.391876
1.000000 0.837341 0.391876
0.000000 1.000000 0.391876
0.000488 1.000000 0.391876
0.008606 1.000000 0.391876
0.046631 1.000000 0.391876
0.154694 1.000000 0.391876
0.391876 1.000000 0.391876
0.837341 1.000000 0.391876
1.000000 1.000000 0.391876
0.000000 0.000000 0.837341
0.000488 0.000000 0.837341
0.008606 0.000000 0.837341
0.046631 0.000000 0.837341
0.154694 0.000000 0.837341
0.391876 0.000000 0.837341
0.837341 0.000000 0.837341
1.000000 0.000000 0.837341
0.000000 0.000488 0.837341
0.000488 0.000488 0.837341
0.008606 0.000488 0.837341
0.046631 0.000488 0.837341
0.154694 0.000488 0.837341
0.391876 0.000488 0.837341
0.837341 0.000488 0.837341
1.000000 0.000488 0.837341
0.000000 0.008606 0.837341
0.000488 0.008606 0.837341
0.008606 0.008606 0.837341
0.046631 0.008606 0.837341
0.154694 0.008606 0.837341
0.391876 0.008606 0.837341
0.837341 0.008606 0.837341
1.000000 0.008606 0.837341
0.000000 0.046631 0.837341
0.000488 0.046631 0.837341
0.008606 0.046631 0.837341
0.046631 0.046631 0.837341
0.154694 0.046631 0.837341
0.391876 0.046631 0.837341
0.837341 0.046631 0.837341
1.000000 0.046631 0.837341
0.000000 0.154694 0.837341
0.000488 0.154694 0.837341
0.008606 0.154694 0.837341
0.046631 0.154694 0.837341
0.154694 0.154694 0.837341
0.391876 0.154694 0.837341
0.837341 0.154694 0.837341
1.000000 0.154694 0.837341
0.000000 0.391876 0.837341
0.000488 0.391876 0.837341
0.008606 0.391876 0.837341
0.046631 0.391876 0.837341
0.154694 0.391876 0.837341
0.391876 0.391876 0.837341
0.837341 0.391876 0.837341
1.000000 0.391876 0.837341
0.000000 0.837341 0.837341
0.000488 0.837341 0.837341
0.008606 0.837341 0.837341
0.046631 0.837341 0.837341
0.154694 0.837341 0.837341
0.391876 0.837341 0.837341
0.837341 0.837341 0.837341
1.000000 0.837341 0.837341
0.000000 1.000000 0.837341
0.000488 1.000000 0.837341
0.008606 1.000000 0.837341
0.046631 1.000000 0.837341
0.154694 1.000000 0.837341
0.391876 1.000000 0.837341
0.837341 1.000000 0.837341
1.000000 1.000000 0.837341
0.000000 0.000000 1.000000
0.000488 0.000000 1.000000
0.008606 0.000000 1.000000
0.046631 0.000000 1.000000
0.154694 0.000000 1.000000
0.391876 0.000000 1.000000
0.837341 0.000000 1.000000
1.000000 0.000000 1.000000
0.000000 0.000488 1.000000
0.000488 0.000488 1.000000
0.008606 0.000488 1.000000
0.046631 0.000488 1.000000
0.154694 0.000488 1.000000
0.391876 0.000488 1.000000
0.837341 0.000488 1.000000
1.000000 0.000488 1.000000
0.000000 0.008606 1.000000
0.000488 0.008606 1.000000
0.008606 0.008606 1.000000
0.046631 0.008606 1.000000
0.154694 0.008606 1.000000
0.391876 0.008606 1.000000
0.837341 0.008606 1.000000
1.000000 0.008606 1.000000
0.000000 0.046631 1.000000
0.000488 0.046631 1.000000
0.008606 0.046631 1.000000
0.046631 0.046631 1.000000
0.154694 0.046631 1.000000
0.391876 0.046631 1.000000
0.837341 0.046631 1.000000
1.000000 0.046631 1.000000
0.000000 0.154694 1.000000
0.000488 0.154694 1.000000
0.008606 0.154694 1.000000
0.046631 0.154694 1.000000
0.154694 0.154694 1.000000
0.391876 0.154694 1.000000
0.837341 0.154694 1.000000
1.000000 0.154694 1.000000
0.000000 0.391876 1.000000
0.000488 0.391876 1.000000
0.008606 0.391876 1.000000
0.046631 0.391876 1.000000
0.154694 0.391876 1.000000
0.391876 0.391876 1.000000
0.837341 0.391876 1.000000
1.000000 0.391876 1.000000
0.000000 0.837341 1.000000
0.000488 0.837341 1.000000
0.008606 0.837341 1.000000
0.046631 0.837341 1.000000
0.154694 0.837341 1.000000
0.391876 0.837341 1.000000
0.837341 0.837341 1.000000
1.000000 0.837341 1.000000
0.000000 1.000000 1.000000
0.000488 1.000000 1.000000
0.008606 1.000000 1.000000
0.046631 1.000000 1.000000
0.154694 1.000000 1.000000
0.391876 1.000000 1.000000
0.837341 1.000000 1.000000
1.000000 1.000000 1.000000
