threshold.cube
#Created by: Adobe Photoshop Export Color Lookup Plugin
TITLE "Untitled"
#LUT size
LUT_3D_SIZE 5
#data domain
#LUT data points
DOMAIN_MIN 0.000000 0.000000 0.000000
DOMAIN_MAX 0.903226 0.903226 0.903226
0.000000 0.000000 0.000000
0.004944 0.000000 0.000000
0.088654 0.000000 0.000000
0.480164 0.000000 0.000000
1.000000 0.000000 0.000000
0.000000 0.004944 0.000000
0.004944 0.004944 0.000000
0.088654 0.004944 0.000000
0.480164 0.004944 0.000000
1.000000 0.004944 0.000000
0.000000 0.088654 0.000000
0.004944 0.088654 0.000000
0.088654 0.088654 0.000000
0.480164 0.088654 0.000000
1.000000 0.088654 0.000000
0.000000 0.480164 0.000000
0.004944 0.480164 0.000000
0.088654 0.480164 0.000000
0.480164 0.480164 0.000000
1.000000 0.480164 0.000000
0.000000 1.000000 0.000000
0.004944 1.000000 0.000000
0.088654 1.000000 0.000000
0.480164 1.000000 0.000000
1.000000 1.000000 0.000000
0.000000 0.000000 0.004944
0.004944 0.000000 0.004944
0.088654 0.000000 0.004944
0.480164 0.000000 0.004944
1.000000 0.000000 0.004944
0.000000 0.004944 0.004944
0.004944 0.004944 0.004944
0.088654 0.004944 0.004944
0.480164 0.004944 0.004944
1.000000 0.004944 0.004944
0.000000 0.088654 0.004944
0.004944 0.088654 0.004944
0.088654 0.088654 0.004944
0.480164 0.088654 0.004944
1.000000 0.088654 0.004944
0.000000 0.480164 0.004944
0.004944 0.480164 0.004944
0.088654 0.480164 0.004944
0.480164 0.480164 0.004944
1.000000 0.480164 0.004944
0.000000 1.000000 0.004944
0.004944 1.000000 0.004944
0.088654 1.000000 0.004944
0.480164 1.000000 0.004944
1.000000 1.000000 0.004944
0.000000 0.000000 0.088654
0.004944 0.000000 0.088654
0.088654 0.000000 0.088654
0.480164 0.000000 0.088654
1.000000 0.000000 0.088654
0.000000 0.004944 0.088654
0.004944 0.004944 0.088654
0.088654 0.004944 0.088654
0.480164 0.004944 0.088654
1.000000 0.004944 0.088654
0.000000 0.088654 0.088654
0.004944 0.088654 0.088654
0.088654 0.088654 0.088654
0.480164 0.088654 0.088654
1.000000 0.088654 0.088654
0.000000 0.480164 0.088654
0.004944 0.480164 0.088654
0.088654 0.480164 0.088654
0.480164 0.480164 0.088654
1.000000 0.480164 0.088654
0.000000 1.000000 0.088654
0.004944 1.000000 0.088654
0.088654 1.000000 0.088654
0.480164 1.000000 0.088654
1.000000 1.000000 0.088654
0.000000 0.000000 0.480164
0.004944 0.000000 0.480164
0.088654 0.000000 0.480164
0.480164 0.000000 0.480164
1.000000 0.000000 0.480164
0.000000 0.004944 0.480164
0.004944 0.004944 0.480164
0.088654 0.004944 0.480164
0.480164 0.004944 0.480164
1.000000 0.004944 0.480164
0.000000 0.088654 0.480164
0.004944 0.088654 0.480164
0.088654 0.088654 0.480164
0.480164 0.088654 0.480164
1.000000 0.088654 0.480164
0.000000 0.480164 0.480164
0.004944 0.480164 0.480164
0.088654 0.480164 0.480164
0.480164 0.480164 0.480164
1.000000 0.480164 0.480164
0.000000 1.000000 0.480164
0.004944 1.000000 0.480164
0.088654 1.000000 0.480164
0.480164 1.000000 0.480164
1.000000 1.000000 0.480164
0.000000 0.000000 1.000000
0.004944 0.000000 1.000000
0.088654 0.000000 1.000000
0.480164 0.000000 1.000000
1.000000 0.000000 1.000000
0.000000 0.004944 1.000000
0.004944 0.004944 1.000000
0.088654 0.004944 1.000000
0.480164 0.004944 1.000000
1.000000 0.004944 1.000000
0.000000 0.088654 1.000000
0.004944 0.088654 1.000000
0.088654 0.088654 1.000000
0.480164 0.088654 1.000000
1.000000 0.088654 1.000000
0.000000 0.480164 1.000000
0.004944 0.480164 1.000000
0.088654 0.480164 1.000000
0.480164 0.480164 1.000000
1.000000 0.480164 1.000000
0.000000 1.000000 1.000000
0.004944 1.000000 1.000000
0.088654 1.000000 1.000000
0.480164 1.000000 1.000000
1.000000 1.000000 1.000000
