threshold.cube
#Created by: Adobe Photoshop Export Color Lookup Plugin
TITLE "Untitled"
#LUT size
LUT_3D_SIZE 32
#data domain
DOMAIN_MIN 0.0 0.0 0.0
DOMAIN_MAX 1.0 1.0 1.0
#LUT data points
0.000000 0.000000 0.000000
0.000000 0.000000 0.000000
0.000031 0.000000 0.000000
0.000153 0.000000 0.000000
0.000488 0.000000 0.000000
0.001221 0.000000 0.000000
0.002594 0.000000 0.000000
0.004944 0.000000 0.000000
0.008606 0.000000 0.000000
0.014069 0.000000 0.000000
0.021820 0.000000 0.000000
0.032471 0.000000 0.000000
0.046631 0.000000 0.000000
0.065094 0.000000 0.000000
0.088654 0.000000 0.000000
0.118073 0.000000 0.000000
0.154694 0.000000 0.000000
0.199005 0.000000 0.000000
0.252716 0.000000 0.000000
0.316376 0.000000 0.000000
0.391876 0.000000 0.000000
0.480164 0.000000 0.000000
0.582581 0.000000 0.000000
0.701569 0.000000 0.000000
0.837341 0.000000 0.000000
0.993134 0.000000 0.000000
1.000000 0.000000 0.000000
1.000000 0.000000 0.000000
1.000000 0.000000 0.000000
1.000000 0.000000 0.000000
1.000000 0.000000 0.000000
1.000000 0.000000 0.000000
0.000000 0.000000 0.000000
0.000000 0.000000 0.000000
0.000031 0.000000 0.000000
0.000153 0.000000 0.000000
0.000488 0.000000 0.000000
0.001221 0.000000 0.000000
0.002594 0.000000 0.000000
0.004944 0.000000 0.000000
0.008606 0.000000 0.000000
0.014069 0.000000 0.000000
0.021820 0.000000 0.000000
0.032471 0.000000 0.000000
0.046631 0.000000 0.000000
0.065094 0.000000 0.000000
0.088654 0.000000 0.000000
0.118073 0.000000 0.000000
0.154694 0.000000 0.000000
0.199005 0.000000 0.000000
0.252716 0.000000 0.000000
0.316376 0.000000 0.000000
0.391876 0.000000 0.000000
0.480164 0.000000 0.000000
0.582581 0.000000 0.000000
0.701569 0.000000 0.000000
0.837341 0.000000 0.000000
0.993134 0.000000 0.000000
1.000000 0.000000 0.000000
1.000000 0.000000 0.000000
1.000000 0.000000 0.000000
1.000000 0.000000 0.000000
1.000000 0.000000 0.000000
1.000000 0.000000 0.000000
0.000000 0.000031 0.000000
0.000000 0.000031 0.000000
0.000031 0.000031 0.000000
0.000153 0.000031 0.000000
0.000488 0.000031 0.000000
0.001221 0.000031 0.000000
0.002594 0.000031 0.000000
0.004944 0.000031 0.000000
0.008606 0.000031 0.000000
0.014069 0.000031 0.000000
0.021820 0.000031 0.000000
0.032471 0.000031 0.000000
0.046631 0.000031 0.000000
0.065094 0.000031 0.000000
0.088654 0.000031 0.000000
0.118073 0.000031 0.000000
0.154694 0.000031 0.000000
0.199005 0.000031 0.000000
0.252716 0.000031 0.000000
0.316376 0.000031 0.000000
0.391876 0.000031 0.000000
0.480164 0.000031 0.000000
0.582581 0.000031 0.000000
0.701569 0.000031 0.000000
0.837341 0.000031 0.000000
0.993134 0.000031 0.000000
1.000000 0.000031 0.000000
1.000000 0.000031 0.000000
1.000000 0.000031 0.000000
1.000000 0.000031 0.000000
1.000000 0.000031 0.000000
1.000000 0.000031 0.000000
0.000000 0.000153 0.000000
0.000000 0.000153 0.000000
0.000031 0.000153 0.000000
0.000153 0.000153 0.000000
0.000488 0.000153 0.000000
0.001221 0.000153 0.000000
0.002594 0.000153 0.000000
0.004944 0.000153 0.000000
0.008606 0.000153 0.000000
0.014069 0.000153 0.000000
0.021820 0.000153 0.000000
0.032471 0.000153 0.000000
0.046631 0.000153 0.000000
0.065094 0.000153 0.000000
0.088654 0.000153 0.000000
0.118073 0.000153 0.000000
0.154694 0.000153 0.000000
0.199005 0.000153 0.000000
0.252716 0.000153 0.000000
0.316376 0.000153 0.000000
0.391876 0.000153 0.000000
0.480164 0.000153 0.000000
0.582581 0.000153 0.000000
0.701569 0.000153 0.000000
0.837341 0.000153 0.000000
0.993134 0.000153 0.000000
1.000000 0.000153 0.000000
1.000000 0.000153 0.000000
1.000000 0.000153 0.000000
1.000000 0.000153 0.000000
1.000000 0.000153 0.000000
1.000000 0.000153 0.000000
0.000000 0.000488 0.000000
0.000000 0.000488 0.000000
0.000031 0.000488 0.000000
0.000153 0.000488 0.000000
0.000488 0.000488 0.000000
0.001221 0.000488 0.000000
0.002594 0.000488 0.000000
0.004944 0.000488 0.000000
0.008606 0.000488 0.000000
0.014069 0.000488 0.000000
0.021820 0.000488 0.000000
0.032471 0.000488 0.000000
0.046631 0.000488 0.000000
0.065094 0.000488 0.000000
0.088654 0.000488 0.000000
0.118073 0.000488 0.000000
0.154694 0.000488 0.000000
0.199005 0.000488 0.000000
0.252716 0.000488 0.000000
0.316376 0.000488 0.000000
0.391876 0.000488 0.000000
0.480164 0.000488 0.000000
0.582581 0.000488 0.000000
0.701569 0.000488 0.000000
0.837341 0.000488 0.000000
0.993134 0.000488 0.000000
1.000000 0.000488 0.000000
1.000000 0.000488 0.000000
1.000000 0.000488 0.000000
1.000000 0.000488 0.000000
1.000000 0.000488 0.000000
1.000000 0.000488 0.000000
0.000000 0.001221 0.000000
0.000000 0.001221 0.000000
0.000031 0.001221 0.000000
0.000153 0.001221 0.000000
0.000488 0.001221 0.000000
0.001221 0.001221 0.000000
0.002594 0.001221 0.000000
0.004944 0.001221 0.000000
0.008606 0.001221 0.000000
0.014069 0.001221 0.000000
0.021820 0.001221 0.000000
0.032471 0.001221 0.000000
0.046631 0.001221 0.000000
0.065094 0.001221 0.000000
0.088654 0.001221 0.000000
0.118073 0.001221 0.000000
0.154694 0.001221 0.000000
0.199005 0.001221 0.000000
0.252716 0.001221 0.000000
0.316376 0.001221 0.000000
0.391876 0.001221 0.000000
0.480164 0.001221 0.000000
0.582581 0.001221 0.000000
0.701569 0.001221 0.000000
0.837341 0.001221 0.000000
0.993134 0.001221 0.000000
1.000000 0.001221 0.000000
1.000000 0.001221 0.000000
1.000000 0.001221 0.000000
1.000000 0.001221 0.000000
1.000000 0.001221 0.000000
1.000000 0.001221 0.000000
0.000000 0.002594 0.000000
0.000000 0.002594 0.000000
0.000031 0.002594 0.000000
0.000153 0.002594 0.000000
0.000488 0.002594 0.000000
0.001221 0.002594 0.000000
0.002594 0.002594 0.000000
0.004944 0.002594 0.000000
0.008606 0.002594 0.000000
0.014069 0.002594 0.000000
0.021820 0.002594 0.000000
0.032471 0.002594 0.000000
0.046631 0.002594 0.000000
0.065094 0.002594 0.000000
0.088654 0.002594 0.000000
0.118073 0.002594 0.000000
0.154694 0.002594 0.000000
0.199005 0.002594 0.000000
0.252716 0.002594 0.000000
0.316376 0.002594 0.000000
0.391876 0.002594 0.000000
0.480164 0.002594 0.000000
0.582581 0.002594 0.000000
0.701569 0.002594 0.000000
0.837341 0.002594 0.000000
0.993134 0.002594 0.000000
1.000000 0.002594 0.000000
1.000000 0.002594 0.000000
1.000000 0.002594 0.000000
1.000000 0.002594 0.000000
1.000000 0.002594 0.000000
1.000000 0.002594 0.000000
0.000000 0.004944 0.000000
0.000000 0.004944 0.000000
0.000031 0.004944 0.000000
0.000153 0.004944 0.000000
0.000488 0.004944 0.000000
0.001221 0.004944 0.000000
0.002594 0.004944 0.000000
0.004944 0.004944 0.000000
0.008606 0.004944 0.000000
0.014069 0.004944 0.000000
0.021820 0.004944 0.000000
0.032471 0.004944 0.000000
0.046631 0.004944 0.000000
0.065094 0.004944 0.000000
0.088654 0.004944 0.000000
0.118073 0.004944 0.000000
0.154694 0.004944 0.000000
0.199005 0.004944 0.000000
0.252716 0.004944 0.000000
0.316376 0.004944 0.000000
0.391876 0.004944 0.000000
0.480164 0.004944 0.000000
0.582581 0.004944 0.000000
0.701569 0.004944 0.000000
0.837341 0.004944 0.000000
0.993134 0.004944 0.000000
1.000000 0.004944 0.000000
1.000000 0.004944 0.000000
1.000000 0.004944 0.000000
1.000000 0.004944 0.000000
1.000000 0.004944 0.000000
1.000000 0.004944 0.000000
0.000000 0.008606 0.000000
0.000000 0.008606 0.000000
0.000031 0.008606 0.000000
0.000153 0.008606 0.000000
0.000488 0.008606 0.000000
0.001221 0.008606 0.000000
0.002594 0.008606 0.000000
0.004944 0.008606 0.000000
0.008606 0.008606 0.000000
0.014069 0.008606 0.000000
0.021820 0.008606 0.000000
0.032471 0.008606 0.000000
0.046631 0.008606 0.000000
0.065094 0.008606 0.000000
0.088654 0.008606 0.000000
0.118073 0.008606 0.000000
0.154694 0.008606 0.000000
0.199005 0.008606 0.000000
0.252716 0.008606 0.000000
0.316376 0.008606 0.000000
0.391876 0.008606 0.000000
0.480164 0.008606 0.000000
0.582581 0.008606 0.000000
0.701569 0.008606 0.000000
0.837341 0.008606 0.000000
0.993134 0.008606 0.000000
1.000000 0.008606 0.000000
1.000000 0.008606 0.000000
1.000000 0.008606 0.000000
1.000000 0.008606 0.000000
1.000000 0.008606 0.000000
1.000000 0.008606 0.000000
0.000000 0.014069 0.000000
0.000000 0.014069 0.000000
0.000031 0.014069 0.000000
0.000153 0.014069 0.000000
0.000488 0.014069 0.000000
0.001221 0.014069 0.000000
0.002594 0.014069 0.000000
0.004944 0.014069 0.000000
0.008606 0.014069 0.000000
0.014069 0.014069 0.000000
0.021820 0.014069 0.000000
0.032471 0.014069 0.000000
0.046631 0.014069 0.000000
0.065094 0.014069 0.000000
0.088654 0.014069 0.000000
0.118073 0.014069 0.000000
0.154694 0.014069 0.000000
0.199005 0.014069 0.000000
0.252716 0.014069 0.000000
0.316376 0.014069 0.000000
0.391876 0.014069 0.000000
0.480164 0.014069 0.000000
0.582581 0.014069 0.000000
0.701569 0.014069 0.000000
0.837341 0.014069 0.000000
0.993134 0.014069 0.000000
1.000000 0.014069 0.000000
1.000000 0.014069 0.000000
1.000000 0.014069 0.000000
1.000000 0.014069 0.000000
1.000000 0.014069 0.000000
1.000000 0.014069 0.000000
0.000000 0.021820 0.000000
0.000000 0.021820 0.000000
0.000031 0.021820 0.000000
0.000153 0.021820 0.000000
0.000488 0.021820 0.000000
0.001221 0.021820 0.000000
0.002594 0.021820 0.000000
0.004944 0.021820 0.000000
0.008606 0.021820 0.000000
0.014069 0.021820 0.000000
0.021820 0.021820 0.000000
0.032471 0.021820 0.000000
0.046631 0.021820 0.000000
0.065094 0.021820 0.000000
0.088654 0.021820 0.000000
0.118073 0.021820 0.000000
0.154694 0.021820 0.000000
0.199005 0.021820 0.000000
0.252716 0.021820 0.000000
0.316376 0.021820 0.000000
0.391876 0.021820 0.000000
0.480164 0.021820 0.000000
0.582581 0.021820 0.000000
0.701569 0.021820 0.000000
0.837341 0.021820 0.000000
0.993134 0.021820 0.000000
1.000000 0.021820 0.000000
1.000000 0.021820 0.000000
1.000000 0.021820 0.000000
1.000000 0.021820 0.000000
1.000000 0.021820 0.000000
1.000000 0.021820 0.000000
0.000000 0.032471 0.000000
0.000000 0.032471 0.000000
0.000031 0.032471 0.000000
0.000153 0.032471 0.000000
0.000488 0.032471 0.000000
0.001221 0.032471 0.000000
0.002594 0.032471 0.000000
0.004944 0.032471 0.000000
0.008606 0.032471 0.000000
0.014069 0.032471 0.000000
0.021820 0.032471 0.000000
0.032471 0.032471 0.000000
0.046631 0.032471 0.000000
0.065094 0.032471 0.000000
0.088654 0.032471 0.000000
0.118073 0.032471 0.000000
0.154694 0.032471 0.000000
0.199005 0.032471 0.000000
0.252716 0.032471 0.000000
0.316376 0.032471 0.000000
0.391876 0.032471 0.000000
0.480164 0.032471 0.000000
0.582581 0.032471 0.000000
0.701569 0.032471 0.000000
0.837341 0.032471 0.000000
0.993134 0.032471 0.000000
1.000000 0.032471 0.000000
1.000000 0.032471 0.000000
1.000000 0.032471 0.000000
1.000000 0.032471 0.000000
1.000000 0.032471 0.000000
1.000000 0.032471 0.000000
0.000000 0.046631 0.000000
0.000000 0.046631 0.000000
0.000031 0.046631 0.000000
0.000153 0.046631 0.000000
0.000488 0.046631 0.000000
0.001221 0.046631 0.000000
0.002594 0.046631 0.000000
0.004944 0.046631 0.000000
0.008606 0.046631 0.000000
0.014069 0.046631 0.000000
0.021820 0.046631 0.000000
0.032471 0.046631 0.000000
0.046631 0.046631 0.000000
0.065094 0.046631 0.000000
0.088654 0.046631 0.000000
0.118073 0.046631 0.000000
0.154694 0.046631 0.000000
0.199005 0.046631 0.000000
0.252716 0.046631 0.000000
0.316376 0.046631 0.000000
0.391876 0.046631 0.000000
0.480164 0.046631 0.000000
0.582581 0.046631 0.000000
0.701569 0.046631 0.000000
0.837341 0.046631 0.000000
0.993134 0.046631 0.000000
1.000000 0.046631 0.000000
1.000000 0.046631 0.000000
1.000000 0.046631 0.000000
1.000000 0.046631 0.000000
1.000000 0.046631 0.000000
1.000000 0.046631 0.000000
0.000000 0.065094 0.000000
0.000000 0.065094 0.000000
0.000031 0.065094 0.000000
0.000153 0.065094 0.000000
0.000488 0.065094 0.000000
0.001221 0.065094 0.000000
0.002594 0.065094 0.000000
0.004944 0.065094 0.000000
0.008606 0.065094 0.000000
0.014069 0.065094 0.000000
0.021820 0.065094 0.000000
0.032471 0.065094 0.000000
0.046631 0.065094 0.000000
0.065094 0.065094 0.000000
0.088654 0.065094 0.000000
0.118073 0.065094 0.000000
0.154694 0.065094 0.000000
0.199005 0.065094 0.000000
0.252716 0.065094 0.000000
0.316376 0.065094 0.000000
0.391876 0.065094 0.000000
0.480164 0.065094 0.000000
0.582581 0.065094 0.000000
0.701569 0.065094 0.000000
0.837341 0.065094 0.000000
0.993134 0.065094 0.000000
1.000000 0.065094 0.000000
1.000000 0.065094 0.000000
1.000000 0.065094 0.000000
1.000000 0.065094 0.000000
1.000000 0.065094 0.000000
1.000000 0.065094 0.000000
0.000000 0.088654 0.000000
0.000000 0.088654 0.000000
0.000031 0.088654 0.000000
0.000153 0.088654 0.000000
0.000488 0.088654 0.000000
0.001221 0.088654 0.000000
0.002594 0.088654 0.000000
0.004944 0.088654 0.000000
0.008606 0.088654 0.000000
0.014069 0.088654 0.000000
0.021820 0.088654 0.000000
0.032471 0.088654 0.000000
0.046631 0.088654 0.000000
0.065094 0.088654 0.000000
0.088654 0.088654 0.000000
0.118073 0.088654 0.000000
0.154694 0.088654 0.000000
0.199005 0.088654 0.000000
0.252716 0.088654 0.000000
0.316376 0.088654 0.000000
0.391876 0.088654 0.000000
0.480164 0.088654 0.000000
0.582581 0.088654 0.000000
0.701569 0.088654 0.000000
0.837341 0.088654 0.000000
0.993134 0.088654 0.000000
1.000000 0.088654 0.000000
1.000000 0.088654 0.000000
1.000000 0.088654 0.000000
1.000000 0.088654 0.000000
1.000000 0.088654 0.000000
1.000000 0.088654 0.000000
0.000000 0.118073 0.000000
0.000000 0.118073 0.000000
0.000031 0.118073 0.000000
0.000153 0.118073 0.000000
0.000488 0.118073 0.000000
0.001221 0.118073 0.000000
0.002594 0.118073 0.000000
0.004944 0.118073 0.000000
0.008606 0.118073 0.000000
0.014069 0.118073 0.000000
0.021820 0.118073 0.000000
0.032471 0.118073 0.000000
0.046631 0.118073 0.000000
0.065094 0.118073 0.000000
0.088654 0.118073 0.000000
0.118073 0.118073 0.000000
0.154694 0.118073 0.000000
0.199005 0.118073 0.000000
0.252716 0.118073 0.000000
0.316376 0.118073 0.000000
0.391876 0.118073 0.000000
0.480164 0.118073 0.000000
0.582581 0.118073 0.000000
0.701569 0.118073 0.000000
0.837341 0.118073 0.000000
0.993134 0.118073 0.000000
1.000000 0.118073 0.000000
1.000000 0.118073 0.000000
1.000000 0.118073 0.000000
1.000000 0.118073 0.000000
1.000000 0.118073 0.000000
1.000000 0.118073 0.000000
0.000000 0.154694 0.000000
0.000000 0.154694 0.000000
0.000031 0.154694 0.000000
0.000153 0.154694 0.000000
0.000488 0.154694 0.000000
0.001221 0.154694 0.000000
0.002594 0.154694 0.000000
0.004944 0.154694 0.000000
0.008606 0.154694 0.000000
0.014069 0.154694 0.000000
0.021820 0.154694 0.000000
0.032471 0.154694 0.000000
0.046631 0.154694 0.000000
0.065094 0.154694 0.000000
0.088654 0.154694 0.000000
0.118073 0.154694 0.000000
0.154694 0.154694 0.000000
0.199005 0.154694 0.000000
0.252716 0.154694 0.000000
0.316376 0.154694 0.000000
0.391876 0.154694 0.000000
0.480164 0.154694 0.000000
0.582581 0.154694 0.000000
0.701569 0.154694 0.000000
0.837341 0.154694 0.000000
0.993134 0.154694 0.000000
1.000000 0.154694 0.000000
1.000000 0.154694 0.000000
1.000000 0.154694 0.000000
1.000000 0.154694 0.000000
1.000000 0.154694 0.000000
1.000000 0.154694 0.000000
0.000000 0.199005 0.000000
0.000000 0.199005 0.000000
0.000031 0.199005 0.000000
0.000153 0.199005 0.000000
0.000488 0.199005 0.000000
0.001221 0.199005 0.000000
0.002594 0.199005 0.000000
0.004944 0.199005 0.000000
0.008606 0.199005 0.000000
0.014069 0.199005 0.000000
0.021820 0.199005 0.000000
0.032471 0.199005 0.000000
0.046631 0.199005 0.000000
0.065094 0.199005 0.000000
0.088654 0.199005 0.000000
0.118073 0.199005 0.000000
0.154694 0.199005 0.000000
0.199005 0.199005 0.000000
0.252716 0.199005 0.000000
0.316376 0.199005 0.000000
0.391876 0.199005 0.000000
0.480164 0.199005 0.000000
0.582581 0.199005 0.000000
0.701569 0.199005 0.000000
0.837341 0.199005 0.000000
0.993134 0.199005 0.000000
1.000000 0.199005 0.000000
1.000000 0.199005 0.000000
1.000000 0.199005 0.000000
1.000000 0.199005 0.000000
1.000000 0.199005 0.000000
1.000000 0.199005 0.000000
0.000000 0.252716 0.000000
0.000000 0.252716 0.000000
0.000031 0.252716 0.000000
0.000153 0.252716 0.000000
0.000488 0.252716 0.000000
0.001221 0.252716 0.000000
0.002594 0.252716 0.000000
0.004944 0.252716 0.000000
0.008606 0.252716 0.000000
0.014069 0.252716 0.000000
0.021820 0.252716 0.000000
0.032471 0.252716 0.000000
0.046631 0.252716 0.000000
0.065094 0.252716 0.000000
0.088654 0.252716 0.000000
0.118073 0.252716 0.000000
0.154694 0.252716 0.000000
0.199005 0.252716 0.000000
0.252716 0.252716 0.000000
0.316376 0.252716 0.000000
0.391876 0.252716 0.000000
0.480164 0.252716 0.000000
0.582581 0.252716 0.000000
0.701569 0.252716 0.000000
0.837341 0.252716 0.000000
0.993134 0.252716 0.000000
1.000000 0.252716 0.000000
1.000000 0.252716 0.000000
1.000000 0.252716 0.000000
1.000000 0.252716 0.000000
1.000000 0.252716 0.000000
1.000000 0.252716 0.000000
0.000000 0.316376 0.000000
0.000000 0.316376 0.000000
0.000031 0.316376 0.000000
0.000153 0.316376 0.000000
0.000488 0.316376 0.000000
0.001221 0.316376 0.000000
0.002594 0.316376 0.000000
0.004944 0.316376 0.000000
0.008606 0.316376 0.000000
0.014069 0.316376 0.000000
0.021820 0.316376 0.000000
0.032471 0.316376 0.000000
0.046631 0.316376 0.000000
0.065094 0.316376 0.000000
0.088654 0.316376 0.000000
0.118073 0.316376 0.000000
0.154694 0.316376 0.000000
0.199005 0.316376 0.000000
0.252716 0.316376 0.000000
0.316376 0.316376 0.000000
0.391876 0.316376 0.000000
0.480164 0.316376 0.000000
0.582581 0.316376 0.000000
0.701569 0.316376 0.000000
0.837341 0.316376 0.000000
0.993134 0.316376 0.000000
1.000000 0.316376 0.000000
1.000000 0.316376 0.000000
1.000000 0.316376 0.000000
1.000000 0.316376 0.000000
1.000000 0.316376 0.000000
1.000000 0.316376 0.000000
0.000000 0.391876 0.000000
0.000000 0.391876 0.000000
0.000031 0.391876 0.000000
0.000153 0.391876 0.000000
0.000488 0.391876 0.000000
0.001221 0.391876 0.000000
0.002594 0.391876 0.000000
0.004944 0.391876 0.000000
0.008606 0.391876 0.000000
0.014069 0.391876 0.000000
0.021820 0.391876 0.000000
0.032471 0.391876 0.000000
0.046631 0.391876 0.000000
0.065094 0.391876 0.000000
0.088654 0.391876 0.000000
0.118073 0.391876 0.000000
0.154694 0.391876 0.000000
0.199005 0.391876 0.000000
0.252716 0.391876 0.000000
0.316376 0.391876 0.000000
0.391876 0.391876 0.000000
0.480164 0.391876 0.000000
0.582581 0.391876 0.000000
0.701569 0.391876 0.000000
0.837341 0.391876 0.000000
0.993134 0.391876 0.000000
1.000000 0.391876 0.000000
1.000000 0.391876 0.000000
1.000000 0.391876 0.000000
1.000000 0.391876 0.000000
1.000000 0.391876 0.000000
1.000000 0.391876 0.000000
0.000000 0.480164 0.000000
0.000000 0.480164 0.000000
0.000031 0.480164 0.000000
0.000153 0.480164 0.000000
0.000488 0.480164 0.000000
0.001221 0.480164 0.000000
0.002594 0.480164 0.000000
0.004944 0.480164 0.000000
0.008606 0.480164 0.000000
0.014069 0.480164 0.000000
0.021820 0.480164 0.000000
0.032471 0.480164 0.000000
0.046631 0.480164 0.000000
0.065094 0.480164 0.000000
0.088654 0.480164 0.000000
0.118073 0.480164 0.000000
0.154694 0.480164 0.000000
0.199005 0.480164 0.000000
0.252716 0.480164 0.000000
0.316376 0.480164 0.000000
0.391876 0.480164 0.000000
0.480164 0.480164 0.000000
0.582581 0.480164 0.000000
0.701569 0.480164 0.000000
0.837341 0.480164 0.000000
0.993134 0.480164 0.000000
1.000000 0.480164 0.000000
1.000000 0.480164 0.000000
1.000000 0.480164 0.000000
1.000000 0.480164 0.000000
1.000000 0.480164 0.000000
1.000000 0.480164 0.000000
0.000000 0.582581 0.000000
0.000000 0.582581 0.000000
0.000031 0.582581 0.000000
0.000153 0.582581 0.000000
0.000488 0.582581 0.000000
0.001221 0.582581 0.000000
0.002594 0.582581 0.000000
0.004944 0.582581 0.000000
0.008606 0.582581 0.000000
0.014069 0.582581 0.000000
0.021820 0.582581 0.000000
0.032471 0.582581 0.000000
0.046631 0.582581 0.000000
0.065094 0.582581 0.000000
0.088654 0.582581 0.000000
0.118073 0.582581 0.000000
0.154694 0.582581 0.000000
0.199005 0.582581 0.000000
0.252716 0.582581 0.000000
0.316376 0.582581 0.000000
0.391876 0.582581 0.000000
0.480164 0.582581 0.000000
0.582581 0.582581 0.000000
0.701569 0.582581 0.000000
0.837341 0.582581 0.000000
0.993134 0.582581 0.000000
1.000000 0.582581 0.000000
1.000000 0.582581 0.000000
1.000000 0.582581 0.000000
1.000000 0.582581 0.000000
1.000000 0.582581 0.000000
1.000000 0.582581 0.000000
0.000000 0.701569 0.000000
0.000000 0.701569 0.000000
0.000031 0.701569 0.000000
0.000153 0.701569 0.000000
0.000488 0.701569 0.000000
0.001221 0.701569 0.000000
0.002594 0.701569 0.000000
0.004944 0.701569 0.000000
0.008606 0.701569 0.000000
0.014069 0.701569 0.000000
0.021820 0.701569 0.000000
0.032471 0.701569 0.000000
0.046631 0.701569 0.000000
0.065094 0.701569 0.000000
0.088654 0.701569 0.000000
0.118073 0.701569 0.000000
0.154694 0.701569 0.000000
0.199005 0.701569 0.000000
0.252716 0.701569 0.000000
0.316376 0.701569 0.000000
0.391876 0.701569 0.000000
0.480164 0.701569 0.000000
0.582581 0.701569 0.000000
0.701569 0.701569 0.000000
0.837341 0.701569 0.000000
0.993134 0.701569 0.000000
1.000000 0.701569 0.000000
1.000000 0.701569 0.000000
1.000000 0.701569 0.000000
1.000000 0.701569 0.000000
1.000000 0.701569 0.000000
1.000000 0.701569 0.000000
0.000000 0.837341 0.000000
0.000000 0.837341 0.000000
0.000031 0.837341 0.000000
0.000153 0.837341 0.000000
0.000488 0.837341 0.000000
0.001221 0.837341 0.000000
0.002594 0.837341 0.000000
0.004944 0.837341 0.000000
0.008606 0.837341 0.000000
0.014069 0.837341 0.000000
0.021820 0.837341 0.000000
0.032471 0.837341 0.000000
0.046631 0.837341 0.000000
0.065094 0.837341 0.000000
0.088654 0.837341 0.000000
0.118073 0.837341 0.000000
0.154694 0.837341 0.000000
0.199005 0.837341 0.000000
0.252716 0.837341 0.000000
0.316376 0.837341 0.000000
0.391876 0.837341 0.000000
0.480164 0.837341 0.000000
0.582581 0.837341 0.000000
0.701569 0.837341 0.000000
0.837341 0.837341 0.000000
0.993134 0.837341 0.000000
1.000000 0.837341 0.000000
1.000000 0.837341 0.000000
1.000000 0.837341 0.000000
1.000000 0.837341 0.000000
1.000000 0.837341 0.000000
1.000000 0.837341 0.000000
0.000000 0.993134 0.000000
0.000000 0.993134 0.000000
0.000031 0.993134 0.000000
0.000153 0.993134 0.000000
0.000488 0.993134 0.000000
0.001221 0.993134 0.000000
0.002594 0.993134 0.000000
0.004944 0.993134 0.000000
0.008606 0.993134 0.000000
0.014069 0.993134 0.000000
0.021820 0.993134 0.000000
0.032471 0.993134 0.000000
0.046631 0.993134 0.000000
0.065094 0.993134 0.000000
0.088654 0.993134 0.000000
0.118073 0.993134 0.000000
0.154694 0.993134 0.000000
0.199005 0.993134 0.000000
0.252716 0.993134 0.000000
0.316376 0.993134 0.000000
0.391876 0.993134 0.000000
0.480164 0.993134 0.000000
0.582581 0.993134 0.000000
0.701569 0.993134 0.000000
0.837341 0.993134 0.000000
0.993134 0.993134 0.000000
1.000000 0.993134 0.000000
1.000000 0.993134 0.000000
1.000000 0.993134 0.000000
1.000000 0.993134 0.000000
1.000000 0.993134 0.000000
1.000000 0.993134 0.000000
0.000000 1.000000 0.000000
0.000000 1.000000 0.000000
0.000031 1.000000 0.000000
0.000153 1.000000 0.000000
0.000488 1.000000 0.000000
0.001221 1.000000 0.000000
0.002594 1.000000 0.000000
0.004944 1.000000 0.000000
0.008606 1.000000 0.000000
0.014069 1.000000 0.000000
0.021820 1.000000 0.000000
0.032471 1.000000 0.000000
0.046631 1.000000 0.000000
0.065094 1.000000 0.000000
0.088654 1.000000 0.000000
0.118073 1.000000 0.000000
0.154694 1.000000 0.000000
0.199005 1.000000 0.000000
0.252716 1.000000 0.000000
0.316376 1.000000 0.000000
0.391876 1.000000 0.000000
0.480164 1.000000 0.000000
0.582581 1.000000 0.000000
0.701569 1.000000 0.000000
0.837341 1.000000 0.000000
0.993134 1.000000 0.000000
1.000000 1.000000 0.000000
1.000000 1.000000 0.000000
1.000000 1.000000 0.000000
1.000000 1.000000 0.000000
1.000000 1.000000 0.000000
1.000000 1.000000 0.000000
0.000000 1.000000 0.000000
0.000000 1.000000 0.000000
0.000031 1.000000 0.000000
0.000153 1.000000 0.000000
0.000488 1.000000 0.000000
0.001221 1.000000 0.000000
0.002594 1.000000 0.000000
0.004944 1.000000 0.000000
0.008606 1.000000 0.000000
0.014069 1.000000 0.000000
0.021820 1.000000 0.000000
0.032471 1.000000 0.000000
0.046631 1.000000 0.000000
0.065094 1.000000 0.000000
0.088654 1.000000 0.000000
0.118073 1.000000 0.000000
0.154694 1.000000 0.000000
0.199005 1.000000 0.000000
